src/assets/icons/public-profile/telephone.svg

<svg width="48" height="48" viewBox="0 0 48 48" fill="none" xmlns="http://www.w3.org/2000/svg">
<path fill-rule="evenodd" clip-rule="evenodd" d="M10.1892 2.99019H10.1776C9.95234 2.99132 9.7296 3.0371 9.52252 3.12483C9.31543 3.21256 9.12818 3.34046 8.97183 3.501L3.85701 8.69127C2.73628 10.0305 2.50053 11.5609 4.55651 15.9802C4.60868 16.095 8.51387 24.8246 15.7639 32.0006C23.041 39.2073 33.3343 43.7471 33.4368 43.7911C36.8222 45.3178 38.1129 45.3752 39.2144 44.0686L44.5127 38.8171C44.6682 38.6642 44.7899 38.481 44.8701 38.2791C44.9502 38.0773 44.9871 37.8611 44.9784 37.6443C44.9719 37.4273 44.9201 37.214 44.8263 37.0178C44.7326 36.8216 44.5988 36.6467 44.4335 36.5041L37.7303 30.6959C37.2762 30.3037 36.7062 29.812 35.4116 31.1168L30.8629 35.5839C30.6391 35.8048 30.3511 35.9508 30.0393 36.0016C29.7274 36.0524 29.4073 36.0053 29.1239 35.867C28.9886 35.8001 25.8138 34.1931 19.6671 28.1055C13.4393 21.9434 11.8123 17.2448 11.7447 17.0497C11.6544 16.7777 11.6447 16.4858 11.7166 16.2085C11.7885 15.9312 11.939 15.68 12.1505 15.4847L16.5561 11.4194C17.8585 9.88888 17.5629 9.59809 17.1281 9.1619L11.3891 3.47804C11.2314 3.32168 11.0441 3.19775 10.8378 3.11337C10.6315 3.02899 10.4104 2.98583 10.1872 2.98637V2.98828L10.1892 2.99019ZM37.3864 48C35.4792 48 33.574 47.1391 32.202 46.5193C31.7769 46.3356 21.3019 41.7173 13.6268 34.1165C5.95936 26.5272 1.96722 17.5796 1.80104 17.2046C-0.181506 12.946 -0.909987 9.68609 1.61167 6.68633L6.81151 1.40614C7.2473 0.963206 7.7679 0.610722 8.34287 0.369287C8.91784 0.127852 9.53565 0.0023108 10.1602 0H10.1892C11.451 0 12.6335 0.485931 13.5243 1.36788L19.2691 7.04982C21.9782 9.73201 19.5937 12.5098 18.8131 13.4205C18.7743 13.4655 18.733 13.5082 18.6894 13.5487L14.9929 16.9597C15.7175 18.4749 17.6344 21.8611 21.8081 25.9896C25.7114 29.8541 28.3103 31.7921 29.5837 32.6377L33.2706 29.0066C35.3555 26.9079 37.7091 26.7032 39.7245 28.4461L46.4219 34.2524H46.4238C46.8992 34.6655 47.2841 35.1707 47.5547 35.7368C47.8253 36.3029 47.976 36.9179 47.9974 37.5438C48.0187 38.1698 47.9103 38.7934 47.6789 39.3763C47.4475 39.9592 47.098 40.489 46.6518 40.933L41.4462 46.0831C40.2462 47.5179 38.8163 48 37.3864 48ZM37.4618 22.5001C37.06 22.5001 36.6746 22.3421 36.3905 22.0608C36.1064 21.7795 35.9468 21.398 35.9468 21.0002C35.9468 18.4807 35.0251 16.183 33.3459 14.5282C31.6919 12.8963 29.4079 12.001 26.9075 12.001H26.8553C26.4533 12.0017 26.0674 11.8443 25.7826 11.5634C25.4977 11.2825 25.3373 10.901 25.3365 10.503C25.3358 10.1049 25.4947 9.7229 25.7785 9.4409C26.0622 9.1589 26.4475 9.00004 26.8495 8.99928C30.204 8.96102 33.2435 10.195 35.4869 12.4027C37.7381 14.6219 38.9767 17.6752 38.9767 21.0002C38.9767 21.398 38.8171 21.7795 38.533 22.0608C38.2489 22.3421 37.8635 22.5001 37.4618 22.5001ZM45.0364 19.5004C44.6346 19.5004 44.2493 19.3423 43.9652 19.0611C43.6811 18.7798 43.5215 18.3983 43.5215 18.0005C43.5215 13.9715 42.2307 10.5661 39.7882 8.15369C37.3651 5.7623 33.9623 4.49964 29.947 4.49964C29.9258 4.49964 29.9084 4.50538 29.8852 4.49964C29.6862 4.50002 29.4892 4.46159 29.3052 4.38657C29.1213 4.31154 28.9541 4.20138 28.8131 4.06237C28.5285 3.78162 28.3681 3.40042 28.3674 3.00263C28.3666 2.60484 28.5255 2.22303 28.809 1.94121C29.0926 1.65939 29.4776 1.50064 29.8794 1.49988H29.947C34.7836 1.49988 38.9245 3.06672 41.9273 6.03013C44.9514 9.01841 46.5513 13.1584 46.5513 18.0005C46.5513 18.3983 46.3917 18.7798 46.1076 19.0611C45.8235 19.3423 45.4382 19.5004 45.0364 19.5004Z" fill="#13C1AC"/>
</svg>

<svg width="48" height="48" viewBox="0 0 48 48" fill="none" xmlns="http://www.w3.org/2000/svg"><path fill-rule="evenodd" clip-rule="evenodd" d="M10.19 2.99h-.012a1.701 1.701 0 00-1.206.511l-5.115 5.19c-1.12 1.34-1.356 2.87.7 7.29.052.114 3.957 8.844 11.207 16.02 7.277 7.206 17.57 11.746 17.673 11.79 3.385 1.527 4.676 1.584 5.777.278l5.299-5.252a1.565 1.565 0 00.313-1.8 1.575 1.575 0 00-.392-.513l-6.704-5.808c-.454-.392-1.024-.884-2.318.42l-4.55 4.468a1.52 1.52 0 01-1.738.283c-.135-.067-3.31-1.674-9.457-7.761-6.228-6.163-7.855-10.861-7.922-11.056a1.485 1.485 0 01.405-1.565l4.406-4.066c1.302-1.53 1.007-1.82.572-2.257L11.39 3.478a1.693 1.693 0 00-1.202-.492v.002l.002.002zM37.385 48c-1.907 0-3.812-.86-5.184-1.48-.425-.184-10.9-4.803-18.575-12.404C5.959 26.528 1.967 17.58 1.8 17.206-.182 12.946-.91 9.686 1.611 6.686l5.2-5.28A4.701 4.701 0 018.344.37 4.74 4.74 0 0110.16 0h.03c1.261 0 2.444.486 3.334 1.368L19.27 7.05c2.71 2.682.325 5.46-.456 6.37a1.61 1.61 0 01-.124.129l-3.696 3.41c.724 1.516 2.641 4.902 6.815 9.03 3.903 3.865 6.502 5.803 7.776 6.649l3.687-3.631c2.084-2.1 4.438-2.304 6.453-.56l6.698 5.805h.002c.475.413.86.919 1.13 1.485a4.55 4.55 0 01-.902 5.196l-5.206 5.15c-1.2 1.435-2.63 1.917-4.06 1.917zm.076-25.5c-.402 0-.787-.158-1.072-.44a1.492 1.492 0 01-.443-1.06c0-2.52-.922-4.817-2.601-6.472-1.654-1.632-3.938-2.527-6.438-2.527h-.053c-.402 0-.788-.157-1.072-.438a1.493 1.493 0 01-.005-2.122c.284-.282.67-.441 1.072-.442 3.354-.038 6.393 1.196 8.637 3.404 2.251 2.219 3.49 5.272 3.49 8.597 0 .398-.16.78-.444 1.06-.284.282-.67.44-1.071.44zm7.574-3c-.401 0-.787-.158-1.07-.439a1.492 1.492 0 01-.444-1.06c0-4.03-1.291-7.435-3.734-9.847C37.365 5.762 33.962 4.5 29.947 4.5c-.021 0-.039.005-.062 0a1.528 1.528 0 01-1.072-.438 1.492 1.492 0 01-.004-2.12c.284-.283.669-.441 1.07-.442h.068c4.837 0 8.978 1.567 11.98 4.53 3.024 2.988 4.624 7.128 4.624 11.97 0 .398-.16.78-.443 1.061-.284.281-.67.44-1.072.44z" fill="#13C1AC"/></svg>
